X:1
T:Title
%%score { ( 1 3 ) | ( 2 4 ) }
L:1/8
M:6/8
K:G
V:1 treble nm="Grand Piano"
V:3 treble 
V:2 bass 
V:4 bass 
V:1
 z3 z2[Q:1/4=100] D | G2 F G2 A | B2 A G2 [FA] | B2 A B2 c | d3- d2 d | [Ge]2 [Ge] [Gc]2 [Ge] | %6
 d2 d B2 B | c2 B A2 [GA] | [FA]3- [FA]2 D | G2 F G2 A | B2 A G2 [FA] | B2 A B2 c | d3- d2 B | %13
 A2 A A2 A | d2 A F2 [DFA] | [DGB]2 [EGB] [EG^c]2 [EGc] |[M:5/8] [DFd]-[DFd]- [DFd]3 |[M:1/8] z | %18
[M:3/4] [Bd]6 | [Bd]6[K:bass] | D,2[K:treble] B B2 B | c2 c c2 D | [cd]6[K:bass] | [cd]6[K:bass] | %24
 D,2[K:treble] A B2 c | B2 B B2 D | [Bd]6 | [Bd]6 | G2 G [EA]2 [EB] | [Ed]3 [Ec]2 [Ec] | %30
 [G^c]3 [Gc]3 | [Gd]2 [Ge] [Gd]2 [EGc] | [DGB]3 [CFA]3 |[M:5/8] [B,G]-[B,G]- [B,G]3 |] %34
V:2
 z3 z2 [G,B,] | [G,B,D]2 [G,A,D] [G,B,D]2 [G,CD] | [G,DG]2 [G,CD][K:bass] [G,B,D]2 [D,D] | %3
 [G,DG]2 [G,CG] [G,DG]2 [G,A,G] | [G,B,G]3- [G,B,G]2 [G,B,G] | [C,C]2 [C,C] [E,C]2 [C,C] | %6
 [G,B,G]2 [G,B,G] [G,DG]2 [G,DG] | [A,DF]2 [G,DG][K:bass] [F,D]2 [E,^C] | [D,D]3- [D,D]2 [D,C] | %9
 [G,B,D]2 [G,A,D] [G,B,D]2 [G,CD] | [G,DG]2[K:bass] [G,CD] [G,B,D]2 [D,D] | %11
 [G,DG]2 [G,CG] [G,DG]2 [G,A,G] | [G,B,G]3- [G,B,G]2 [^G,D=F] | %13
 [A,DF]2 [A,DF][K:bass] [G,^CE]2 [G,CE] | [F,A,D]2 A, F,2 D, | G,2 E, A,2 A, |[M:5/8] D,-D,- D,3 | %17
[M:1/8] D |[M:3/4] G,,2 D, D,2 D | G,,2 [D,G,] .[D,G,]3 | z2[K:treble] [B,DG] [A,DG]2 [G,DG] | %21
 [DF]2 [DF] .[F,DF]3 | D,,2 D, D,2 D | D,,2 [D,F,] .[D,F,]3 | z2[K:treble] [CDF] [B,DF]2 [A,DF] | %25
 [DG]2 [DG] .[DG]3 | G,,2 D, D,2 D | G,,2 [D,G,] [D,G,]2 [G,B,D] | %28
 [E,B,E]2 [E,B,E] [C,A,]2 [B,,^G,] | [A,,A,]3 [A,,A,]2 [A,,A,] | [^D,_B,]3 [D,B,]3 | %31
 [D,B,]2 [D,C] [D,B,]2 D, | D,3 D,3 |[M:5/8] G,-G,- G,3 |] %34
V:3
 x6 | x6 | x6 | x6 | x6 | x6 | x6 | x6 | x6 | x6 | x6 | x6 | x6 | x6 | x6 | x6 |[M:5/8] x5 | %17
[M:1/8] x |[M:3/4] z2 [G,B,] .[G,B,]3 | z2[K:bass] B, B,2 D, | x2[K:treble] x4 | x6 | %22
 z2[K:bass] [F,C] .[F,C]3 | z2 C C2[K:bass] D, | x2[K:treble] x4 | x6 | z2 [G,B,] .[G,B,]3 | %27
 z2 B, B,2 B | x6 | x6 | x6 | x6 | x6 |[M:5/8] x5 |] %34
V:4
 x6 | x6 | x3[K:bass] x3 | x6 | x6 | x6 | x6 | x3[K:bass] x3 | x6 | x6 | x2[K:bass] x4 | x6 | x6 | %13
 x3[K:bass] x3 | x6 | x6 |[M:5/8] x5 |[M:1/8] x |[M:3/4] x6 | x6 | x2[K:treble] x4 | C4 z2 | x6 | %23
 x6 | x2[K:treble] x4 | B,6 | x6 | x6 | x6 | x6 | x6 | x6 | x6 |[M:5/8] x5 |] %34

